!!!OTL: Over There
!!!COM: Cohan, George
!!!ODT: unknown
!!!YOR: Good Ol' Songs
!!!YOY: 2001
!!!AST: Patriotic song
!!!YEC: Brian Luke, 2001
**kern	**harm
*k[b-e-]	*k[b-e-]
*M2/4	*M2/4
*B-:	*B-:
*>A	*>A
8dd	.
8f	.
=1	=1
[2b-	I
=2	=2
4b-]	.
8dd	.
8f	.
=3	=3
[2b-	.
=4	=4
4b-]	.
8dd	.
8f	.
=5	=5
4b-	.
8dd	.
8f	.
=6	=6
4b-	.
8dd	.
8f	.
=7	=7
[2b-	.
=8	=8
4b-]	.
*>B	*>B
8cc	V7
8dd	V7/IV
=9	=9
4ee-	IV
4dd	.
=10	=10
8cc	V7
4ff	.
8ee-	.
=11	=11
4dd	I
4cc	viio7/vi
=12	=12
8b-	vi
4dd	.
8b-	.
=13	=13
4a	V
4cc	viio7/vi
=14	=14
8b-	V7/V
8a	.
8b-	.
8g	.
=15	=15
[2cc	V7;
=16	=16
4cc]	.
*>A	*>A
8dd	.
8f	.
=17	=17
[2b-	I
=18	=18
4b-]	.
8dd	.
8f	.
=19	=19
[2b-	.
=20	=20
4b-]	.
8dd	.
8f	.
=21	=21
4b-	.
8dd	.
8f	.
=22	=22
4b-	.
8dd	.
8f	.
=23	=23
[2b-	.
=24	=24
4b-]	.
*>C	*>C
8dd	V7
8cc	.
=25	=25
2b-	I
=26	=26
8f	.
8dd	.
8cc	.
8b-	.
=27	=27
2cc	V7
=28	=28
8f	.
8r	.
8g	.
8a	.
=29	=29
8b-	I
8r	.
4b-	V7/IV
=30	=30
4b-	IV
8b-	.
8b-	.
=31	=31
8b-	V7
8a	.
8g	.
8a	.
=32	=32
2b-	I;
*-	*-
